svgs/sharp-light/grid-5.svg

<svg xmlns="http://www.w3.org/2000/svg" viewBox="0 0 448 512"><!--! Font Awesome Pro 6.6.0 by @fontawesome - https://fontawesome.com License - https://fontawesome.com/license (Commercial License) Copyright 2024 Fonticons, Inc. --><path d="M40 56l0 16L24 72l0-16 16 0zM24 32L0 32 0 56 0 72 0 96l24 0 16 0 24 0 0-24 0-16 0-24L40 32 24 32zM40 152l0 16-16 0 0-16 16 0zM24 128L0 128l0 24 0 16 0 24 24 0 16 0 24 0 0-24 0-16 0-24-24 0-16 0zm0 120l16 0 0 16-16 0 0-16zM0 224l0 24 0 16 0 24 24 0 16 0 24 0 0-24 0-16 0-24-24 0-16 0L0 224zM40 344l0 16-16 0 0-16 16 0zM24 320L0 320l0 24 0 16 0 24 24 0 16 0 24 0 0-24 0-16 0-24-24 0-16 0zm0 120l16 0 0 16-16 0 0-16zM0 416l0 24 0 16 0 24 24 0 16 0 24 0 0-24 0-16 0-24-24 0-16 0L0 416zM136 56l0 16-16 0 0-16 16 0zM120 32L96 32l0 24 0 16 0 24 24 0 16 0 24 0 0-24 0-16 0-24-24 0-16 0zm0 120l16 0 0 16-16 0 0-16zM96 128l0 24 0 16 0 24 24 0 16 0 24 0 0-24 0-16 0-24-24 0-16 0-24 0zm40 120l0 16-16 0 0-16 16 0zm-16-24l-24 0 0 24 0 16 0 24 24 0 16 0 24 0 0-24 0-16 0-24-24 0-16 0zm0 120l16 0 0 16-16 0 0-16zM96 320l0 24 0 16 0 24 24 0 16 0 24 0 0-24 0-16 0-24-24 0-16 0-24 0zm40 120l0 16-16 0 0-16 16 0zm-16-24l-24 0 0 24 0 16 0 24 24 0 16 0 24 0 0-24 0-16 0-24-24 0-16 0zM216 56l16 0 0 16-16 0 0-16zM192 32l0 24 0 16 0 24 24 0 16 0 24 0 0-24 0-16 0-24-24 0-16 0-24 0zm40 120l0 16-16 0 0-16 16 0zm-16-24l-24 0 0 24 0 16 0 24 24 0 16 0 24 0 0-24 0-16 0-24-24 0-16 0zm0 120l16 0 0 16-16 0 0-16zm-24-24l0 24 0 16 0 24 24 0 16 0 24 0 0-24 0-16 0-24-24 0-16 0-24 0zm40 120l0 16-16 0 0-16 16 0zm-16-24l-24 0 0 24 0 16 0 24 24 0 16 0 24 0 0-24 0-16 0-24-24 0-16 0zm0 120l16 0 0 16-16 0 0-16zm-24-24l0 24 0 16 0 24 24 0 16 0 24 0 0-24 0-16 0-24-24 0-16 0-24 0zM328 56l0 16-16 0 0-16 16 0zM312 32l-24 0 0 24 0 16 0 24 24 0 16 0 24 0 0-24 0-16 0-24-24 0-16 0zm0 120l16 0 0 16-16 0 0-16zm-24-24l0 24 0 16 0 24 24 0 16 0 24 0 0-24 0-16 0-24-24 0-16 0-24 0zm40 120l0 16-16 0 0-16 16 0zm-16-24l-24 0 0 24 0 16 0 24 24 0 16 0 24 0 0-24 0-16 0-24-24 0-16 0zm0 120l16 0 0 16-16 0 0-16zm-24-24l0 24 0 16 0 24 24 0 16 0 24 0 0-24 0-16 0-24-24 0-16 0-24 0zm40 120l0 16-16 0 0-16 16 0zm-16-24l-24 0 0 24 0 16 0 24 24 0 16 0 24 0 0-24 0-16 0-24-24 0-16 0zM408 56l16 0 0 16-16 0 0-16zM384 32l0 24 0 16 0 24 24 0 16 0 24 0 0-24 0-16 0-24-24 0-16 0-24 0zm40 120l0 16-16 0 0-16 16 0zm-16-24l-24 0 0 24 0 16 0 24 24 0 16 0 24 0 0-24 0-16 0-24-24 0-16 0zm0 120l16 0 0 16-16 0 0-16zm-24-24l0 24 0 16 0 24 24 0 16 0 24 0 0-24 0-16 0-24-24 0-16 0-24 0zm40 120l0 16-16 0 0-16 16 0zm-16-24l-24 0 0 24 0 16 0 24 24 0 16 0 24 0 0-24 0-16 0-24-24 0-16 0zm0 120l16 0 0 16-16 0 0-16zm-24-24l0 24 0 16 0 24 24 0 16 0 24 0 0-24 0-16 0-24-24 0-16 0-24 0z"/></svg>

<svg xmlns="http://www.w3.org/2000/svg" viewBox="0 0 448 512"><!--! Font Awesome Pro 6.4.0 by @fontawesome - https://fontawesome.com License - https://fontawesome.com/license (Commercial License) Copyright 2023 Fonticons, Inc. --><path d="M40 56V72H24V56H40zM24 32H0V56 72 96H24 40 64V72 56 32H40 24zM40 152v16H24V152H40zM24 128H0v24 16 24H24 40 64V168 152 128H40 24zm0 120H40v16H24V248zM0 224v24 16 24H24 40 64V264 248 224H40 24 0zM40 344v16H24V344H40zM24 320H0v24 16 24H24 40 64V360 344 320H40 24zm0 120H40v16H24V440zM0 416v24 16 24H24 40 64V456 440 416H40 24 0zM136 56V72H120V56h16zM120 32H96V56 72 96h24 16 24V72 56 32H136 120zm0 120h16v16H120V152zM96 128v24 16 24h24 16 24V168 152 128H136 120 96zm40 120v16H120V248h16zm-16-24H96v24 16 24h24 16 24V264 248 224H136 120zm0 120h16v16H120V344zM96 320v24 16 24h24 16 24V360 344 320H136 120 96zm40 120v16H120V440h16zm-16-24H96v24 16 24h24 16 24V456 440 416H136 120zM216 56h16V72H216V56zM192 32V56 72 96h24 16 24V72 56 32H232 216 192zm40 120v16H216V152h16zm-16-24H192v24 16 24h24 16 24V168 152 128H232 216zm0 120h16v16H216V248zm-24-24v24 16 24h24 16 24V264 248 224H232 216 192zm40 120v16H216V344h16zm-16-24H192v24 16 24h24 16 24V360 344 320H232 216zm0 120h16v16H216V440zm-24-24v24 16 24h24 16 24V456 440 416H232 216 192zM328 56V72H312V56h16zM312 32H288V56 72 96h24 16 24V72 56 32H328 312zm0 120h16v16H312V152zm-24-24v24 16 24h24 16 24V168 152 128H328 312 288zm40 120v16H312V248h16zm-16-24H288v24 16 24h24 16 24V264 248 224H328 312zm0 120h16v16H312V344zm-24-24v24 16 24h24 16 24V360 344 320H328 312 288zm40 120v16H312V440h16zm-16-24H288v24 16 24h24 16 24V456 440 416H328 312zM408 56h16V72H408V56zM384 32V56 72 96h24 16 24V72 56 32H424 408 384zm40 120v16H408V152h16zm-16-24H384v24 16 24h24 16 24V168 152 128H424 408zm0 120h16v16H408V248zm-24-24v24 16 24h24 16 24V264 248 224H424 408 384zm40 120v16H408V344h16zm-16-24H384v24 16 24h24 16 24V360 344 320H424 408zm0 120h16v16H408V440zm-24-24v24 16 24h24 16 24V456 440 416H424 408 384z"/></svg>
